packages/sources/assets/src/assets/oney-3x.svg

<svg width="58" height="40" viewBox="0 0 58 40" fill="none" xmlns="http://www.w3.org/2000/svg">
<rect x="0.5" y="0.5" width="57" height="39" rx="3.5" fill="white" stroke="#F3F3F3"/>
<path fill-rule="evenodd" clip-rule="evenodd" d="M40.4404 13.5309C43.1427 13.5309 45.3508 15.7556 45.3674 18.491C45.3674 18.7537 45.3457 19.1342 45.3281 19.3239H37.3559C37.7613 21.1639 39.2435 21.9782 40.4791 21.9782C41.4521 21.9782 42.4737 21.5413 43.015 20.8935L43.0269 20.8796H45.0422C45.0422 20.8796 45.0375 20.9013 45.0163 20.9447C44.0149 22.992 41.9092 23.7138 40.4062 23.7138C39.09 23.7138 37.8523 23.173 36.9144 22.1912C35.9931 21.2218 35.4803 19.951 35.4803 18.613C35.4803 15.7633 37.6605 13.5309 40.4404 13.5309ZM40.4243 15.2639C38.8392 15.2639 37.6605 16.468 37.4149 17.7H43.4291C43.1872 16.468 42.0084 15.2639 40.4243 15.2639ZM27.1803 18.0748C27.1803 16.1692 28.0934 15.206 29.8899 15.206C31.6855 15.206 32.5933 16.1692 32.5933 18.0748V23.7179H34.4364V17.9425C34.4256 16.9297 34.2405 16.2136 33.831 15.5415C33.3425 14.7867 32.1787 13.517 29.8899 13.517C27.595 13.517 26.4348 14.7867 25.9458 15.5415C25.5327 16.2136 25.3533 16.9297 25.3357 17.9425V23.7179H27.1803V18.0748ZM51.0689 23.006L54.9572 13.519H53.0247L50.1088 20.6526L47.1996 13.519H45.1735L49.1477 23.0081L47.6603 26.6519H49.5773L50.1077 25.3537L51.0689 23.006ZM15.901 18.626C15.901 20.5078 17.3775 21.9839 19.1922 21.9839C20.9939 21.9839 22.4782 20.5078 22.4782 18.626C22.4782 16.743 20.9939 15.2639 19.1922 15.2639C17.3775 15.2639 15.901 16.743 15.901 18.626ZM14.1028 18.6254C14.1028 15.7607 16.3378 13.519 19.1917 13.519C22.0388 13.519 24.2727 15.7607 24.2727 18.6254C24.2727 21.4876 22.0388 23.7324 19.1917 23.7324C16.3378 23.7324 14.1028 21.4876 14.1028 18.6254ZM9.77477 19.5708L10.2225 20.3644H11.2255L10.2907 18.9871L11.2089 17.6331H10.2054L9.77477 18.4039L9.34411 17.6331H8.34164L9.26501 18.9871L8.32458 20.3644H9.32756L9.77477 19.5708ZM5.09437 19.0326C5.09437 19.8712 5.63825 20.4492 6.61848 20.4492C7.37227 20.4492 8.04695 20.0128 8.04695 19.259C8.04695 18.755 7.75743 18.4318 7.4007 18.3015C7.71814 18.194 7.9844 17.8709 7.9844 17.4237C7.9844 16.6807 7.33246 16.3126 6.60142 16.3126C5.62119 16.3126 5.2019 16.9077 5.2019 17.5819H6.11958C6.11958 17.2365 6.23332 17.0039 6.62417 17.0039C6.89042 17.0039 7.07758 17.1455 7.07758 17.4459C7.07758 17.7349 6.95867 17.9334 6.55076 17.9334H6.19351V18.6417H6.55076C6.9809 18.6417 7.13445 18.8625 7.13445 19.1913C7.13445 19.4632 6.9473 19.713 6.60711 19.713C6.25607 19.713 6.01204 19.4632 6.01204 19.0326H5.09437ZM3 18.6097C3 15.7527 5.2293 13.5172 8.07591 13.5172C10.9158 13.5172 13.1441 15.7527 13.1441 18.6097C13.1441 21.4651 10.9158 23.7037 8.07591 23.7037C5.2293 23.7037 3 21.4651 3 18.6097Z" fill="#87BC2B"/>
</svg>

<svg width="58" height="40" fill="none" xmlns="http://www.w3.org/2000/svg"><rect x=".5" y=".5" width="57" height="39" rx="3.5" fill="#fff" stroke="#F3F3F3"/><path fill-rule="evenodd" clip-rule="evenodd" d="M40.44 13.53c2.703 0 4.91 2.226 4.927 4.961 0 .263-.021.643-.039.833h-7.972c.405 1.84 1.887 2.654 3.123 2.654.973 0 1.995-.437 2.536-1.085l.012-.013h2.015s-.005.021-.026.065c-1.001 2.047-3.107 2.769-4.61 2.769-1.316 0-2.554-.541-3.492-1.523a5.178 5.178 0 0 1-1.434-3.578c0-2.85 2.18-5.082 4.96-5.082Zm-.016 1.734c-1.585 0-2.764 1.204-3.01 2.436h6.015c-.242-1.232-1.42-2.436-3.005-2.436Zm-13.244 2.81c0-1.905.913-2.868 2.71-2.868 1.796 0 2.703.963 2.703 2.869v5.643h1.843v-5.776c-.01-1.012-.196-1.728-.605-2.4-.489-.755-1.652-2.025-3.941-2.025-2.295 0-3.455 1.27-3.944 2.024-.413.673-.593 1.389-.61 2.401v5.776h1.844v-5.643Zm23.889 4.932 3.888-9.487h-1.932l-2.916 7.134-2.91-7.134h-2.026l3.975 9.49-1.488 3.643h1.917l.53-1.298.962-2.348ZM15.9 18.626c0 1.882 1.477 3.358 3.291 3.358 1.802 0 3.286-1.476 3.286-3.358 0-1.883-1.484-3.362-3.286-3.362-1.814 0-3.291 1.479-3.291 3.362Zm-1.798 0c0-2.865 2.235-5.107 5.089-5.107 2.847 0 5.08 2.242 5.08 5.106 0 2.863-2.233 5.107-5.08 5.107-2.854 0-5.09-2.244-5.09-5.107Zm-4.328.945.447.793h1.004l-.935-1.377.918-1.354h-1.004l-.43.77-.43-.77H8.341l.923 1.354-.94 1.377h1.003l.447-.793Zm-4.68-.538c0 .838.543 1.416 1.523 1.416.754 0 1.429-.436 1.429-1.19 0-.504-.29-.827-.646-.957.317-.108.583-.431.583-.878 0-.743-.652-1.111-1.383-1.111-.98 0-1.4.595-1.4 1.269h.919c0-.346.113-.578.504-.578.266 0 .454.141.454.442 0 .289-.12.487-.527.487h-.357v.709h.357c.43 0 .583.22.583.55a.504.504 0 0 1-.527.521c-.35 0-.595-.25-.595-.68h-.918ZM3 18.61c0-2.857 2.23-5.093 5.076-5.093 2.84 0 5.068 2.236 5.068 5.093 0 2.855-2.228 5.094-5.068 5.094C5.229 23.704 3 21.465 3 18.61Z" fill="#87BC2B"/></svg>
